!!!COM: Bach, Johann Sebastian
!!!CDT: 1685/3//-1750/7/28/
!!!OTL@@DE: Du Lebensfuerst, Herr Jesu Christ
!!!AGN: 4-Part Chorale
!!!SCT: BH 361
!!!SCT: BWV 248
**harm	**root	**kern	**kern	**kern	**kern
!	!	!bass	!tenor	!alto	!soprno
*	*Iorgan	*Iorgan	*Iorgan	*Iorgan	*Iorgan
*M4/4	*M4/4	*M4/4	*M4/4	*M4/4	*M4/4
*met(c)	*met(c)	*met(c)	*met(c)	*met(c)	*met(c)
*MM60	*MM60	*MM60	*MM60	*MM60	*MM60
*k[]	*k[]	*k[]	*k[]	*k[]	*k[]
*C:	*C:	*C:	*C:	*C:	*C:
*>[A,A,B]	*>[A,A,B]	*>[A,A,B]	*>[A,A,B]	*>[A,A,B]	*>[A,A,B]
*>A	*>A	*>A	*>A	*>A	*>A
I	4GG	8c	4e	4g	4cc
.	.	8B	.	.	.
=1	=1	=1	=1	=1	=1
vi	4EE	4A	8e	4a	4cc
.	.	.	4f	.	.
V7	4DD	4G	.	4b	4dd
.	.	.	8g	.	.
I	8GG	4c	8e	8g	8ee
V7d/V	8AA	.	8d	8a	8ff#
Vb	4DD	8B	4d	4b	4gg
.	.	8c	.	.	.
=2	=2	=2	=2	=2	=2
Vc	4DD	4d	4d	8a	4gg
.	.	.	.	8b	.
V7/V	4AA	4D	4d	4cc	4ff#
V;	4DD;	4G;	4d;	4b;	4gg;
V/vi	4BB	4G#	8e	4b	4ee
.	.	.	8d	.	.
=3	=3	=3	=3	=3	=3
IVb	4CC	8A	8c	4a	4ff
.	.	8B	8d	.	.
I	8GG	8c	8e	8g	4ee
IV7	8CC	8F	8f	8a	.
V7d	4DD	8f	4g	4b	4dd
.	.	8e	.	.	.
I	4GG	8d	4g	4cc	4ee
.	.	8c	.	.	.
=4	=4	=4	=4	=4	=4
V	2DD	4g	4.g	4cc	2dd
.	.	4G	.	4b	.
.	.	.	8f	.	.
I;	4GG;	4c;	4e;	4g;	4cc;
=:|!	=:|!	=:|!	=:|!	=:|!	=:|!
*>B	*>B	*>B	*>B	*>B	*>B
V	4DD	4G	8g	8b	4dd
.	.	.	8a	8cc	.
=5	=5	=5	=5	=5	=5
V	4DD	8g	8b	4.dd	4dd
.	.	8f	8a	.	.
viio/ii	4GG#	4e	4g	.	4ee
.	.	.	.	8cc#	.
ii	4AA	4d	4a	8dd	4ff
.	.	.	.	8cc#	.
viioD7/vi	4DD#	4G#	4b	4dd	4ff
!!linebreak: 2
=6	=6	=6	=6	=6	=6
vi	4EE	4A	4e	4dd	8ee
.	.	.	.	.	8dd
V/ii	4EE	4A	8a	4cc#	4ee
.	.	.	8g	.	.
ii;	4AA;	4D;	4f;	4a;	4dd;
vi	8EE	8A	8c	8a	4ee
V7c/vi	8BB	8B	8d	8g#	.
=7	=7	=7	=7	=7	=7
vib	4EE	4c	8e	4a	4ee
.	.	.	8f	.	.
V7b/ii	4EE	4c#	8g	4a	4ee
.	.	.	8a	.	.
ii	4AA	4d	4f	8a	8ff
.	.	.	.	8b	8gg
V7b/V/vi	4FF#	4d#	4f#	8cc	4aa
.	.	.	.	8b	.
=8	=8	=8	=8	=8	=8
V/vi	4BB	4e	4e	8b	4aa
.	.	.	.	8cc	.
V7/vi	4BB	4E	4e	4dd	4gg#
vi;	4EE;	4A;	4e;	4cc;	4aa;
V	4DD	8g	4g	4dd	4bb
.	.	8f	.	.	.
=9	=9	=9	=9	=9	=9
Ib	4GG	8e	4g	8cc	4ccc
.	.	8d	.	8dd	.
I	4GG	8c	4cc	4ee	4ee
.	.	8B	.	.	.
IV7b	8CC	8A	8c	8ee	4ff
viio	8FF#	8B	8d	8dd	.
I	8GG	8c	4e	8dd	4ee
vi	8EE	8A	.	8cc	.
=10	=10	=10	=10	=10	=10
V7b/V	2AA	8F#	8a	2cc	2dd
.	.	8E	8g	.	.
.	.	8F#	8a	.	.
.	.	8D	8f#	.	.
V;	4DD;	4G;	4g;	4b;	4dd;
Ib	4GG	4E	4g	8cc	4gg
.	.	.	.	8b	.
=11	=11	=11	=11	=11	=11
IV	4CC	4F	8g	4a	4aa
.	.	.	8f	.	.
V7	4DD	4G	8f	4b	4gg
.	.	.	8e	.	.
IV7b	8CC	8A	8e	8cc	4ff
vii	8FF#	8B	8d	8dd	.
I	4GG	4c	4c	4g	8ee
.	.	.	.	.	8ff
=12	=12	=12	=12	=12	=12
ii7b	4AA	4F	8c	4a	2dd
.	.	.	16B	.	.
.	.	.	16A	.	.
V	4DD	4G	4B	4g	.
I;	4GG;	4C;	4e;	4g;	4cc;
==	==	==	==	==	==
*-	*-	*-	*-	*-	*-
!!chor2scor: -l 2 -o %b.pmx
!!!YEC: Copyright 1994, David Huron
!!!YEC: Changes/Additions 2001 by Craig Stuart Sapp
!!!YEN: United States of America
!!!SMA: 371 Bach Chorales, edited by Ludwig Erk, C.F. Peters
!!!PDT: 1850, 1865
!!!ONB: Harmony and Root analysis done manually
